Numix-Light/16/status/indicator-keyboard-Ka-1.svg

<?xml version="1.0" encoding="UTF-8" standalone="no"?>
<svg
   xmlns:dc="http://purl.org/dc/elements/1.1/"
   xmlns:cc="http://creativecommons.org/ns#"
   xmlns:rdf="http://www.w3.org/1999/02/22-rdf-syntax-ns#"
   xmlns:svg="http://www.w3.org/2000/svg"
   xmlns="http://www.w3.org/2000/svg"
   xmlns:sodipodi="http://sodipodi.sourceforge.net/DTD/sodipodi-0.dtd"
   xmlns:inkscape="http://www.inkscape.org/namespaces/inkscape"
   viewBox="0 0 16 16"
   id="svg2"
   version="1.1"
   inkscape:version="0.91 r13725"
   sodipodi:docname="indicator-keyboard-Ka-1.svg">
  <metadata
     id="metadata14">
    <rdf:RDF>
      <cc:Work
         rdf:about="">
        <dc:format>image/svg+xml</dc:format>
        <dc:type
           rdf:resource="http://purl.org/dc/dcmitype/StillImage" />
      </cc:Work>
    </rdf:RDF>
  </metadata>
  <defs
     id="defs12" />
  <sodipodi:namedview
     pagecolor="#ffffff"
     bordercolor="#666666"
     borderopacity="1"
     objecttolerance="10"
     gridtolerance="10"
     guidetolerance="10"
     inkscape:pageopacity="0"
     inkscape:pageshadow="2"
     inkscape:window-width="459"
     inkscape:window-height="369"
     id="namedview10"
     showgrid="false"
     inkscape:zoom="14.75"
     inkscape:cx="8"
     inkscape:cy="8"
     inkscape:window-x="65"
     inkscape:window-y="24"
     inkscape:window-maximized="0"
     inkscape:current-layer="svg2" />
  <path
     style="fill:#353535;fill-opacity:1"
     d="M 1.5996094 0 C 0.71320937 2.9605947e-16 0 0.71320937 0 1.5996094 L 0 14.400391 C 2.9605947e-16 15.286791 0.71320937 16 1.5996094 16 L 14.400391 16 C 15.286791 16 16 15.286791 16 14.400391 L 16 1.5996094 C 16 0.71320937 15.286791 0 14.400391 0 L 1.5996094 0 z M 2.3808594 4.859375 L 2.9921875 4.859375 L 2.9921875 7.765625 C 3.2201875 7.561625 3.4720469 7.3284531 3.7480469 7.0644531 C 4.0300469 6.7944531 4.3061719 6.5239062 4.5761719 6.2539062 C 4.8521719 5.9839063 5.1096094 5.7264687 5.3496094 5.4804688 C 5.5896094 5.2344688 5.7817813 5.027375 5.9257812 4.859375 L 6.6640625 4.859375 C 6.4900625 5.045375 6.2811562 5.2673906 6.0351562 5.5253906 C 5.7891562 5.7773906 5.5279531 6.0385937 5.2519531 6.3085938 C 4.9759531 6.5785938 4.6998281 6.845375 4.4238281 7.109375 C 4.1538281 7.367375 3.9093594 7.5949688 3.6933594 7.7929688 C 3.8673594 7.9009687 4.0539531 8.0352656 4.2519531 8.1972656 C 4.4559531 8.3532656 4.6612344 8.5287031 4.8652344 8.7207031 C 5.0752344 8.9067031 5.2785625 9.1044531 5.4765625 9.3144531 C 5.6805625 9.5184531 5.8689687 9.7255469 6.0429688 9.9355469 C 6.2229688 10.145547 6.3815312 10.348875 6.5195312 10.546875 C 6.6635313 10.744875 6.7810938 10.927703 6.8710938 11.095703 L 6.1875 11.095703 C 5.9835 10.783703 5.7521406 10.475922 5.4941406 10.169922 C 5.2421406 9.8639217 4.9753594 9.5746875 4.6933594 9.3046875 C 4.4113594 9.0346875 4.1240781 8.7884063 3.8300781 8.5664062 C 3.5420781 8.3444063 3.2621875 8.1597656 2.9921875 8.0097656 L 2.9921875 11.095703 L 2.3808594 11.095703 L 2.3808594 4.859375 z M 9.1542969 6.3359375 C 9.4602969 6.3359375 9.7177344 6.3807031 9.9277344 6.4707031 C 10.143735 6.5547031 10.317219 6.6740781 10.449219 6.8300781 C 10.581219 6.9800781 10.678281 7.1591406 10.738281 7.3691406 C 10.798281 7.5791406 10.828125 7.8086875 10.828125 8.0546875 L 10.828125 10.988281 C 10.768125 11.006281 10.680406 11.026781 10.566406 11.050781 C 10.452406 11.068781 10.319922 11.089281 10.169922 11.113281 C 10.019922 11.137281 9.8520156 11.155969 9.6660156 11.167969 C 9.4860156 11.185969 9.301375 11.195313 9.109375 11.195312 C 8.863375 11.195312 8.6338281 11.167281 8.4238281 11.113281 C 8.2198281 11.059281 8.0407656 10.975328 7.8847656 10.861328 C 7.7347656 10.741328 7.6153906 10.592109 7.5253906 10.412109 C 7.4413906 10.226109 7.3984375 10.000328 7.3984375 9.7363281 C 7.3984375 9.4843281 7.4469688 9.2698437 7.5429688 9.0898438 C 7.6389688 8.9098438 7.7732656 8.7624375 7.9472656 8.6484375 C 8.1212656 8.5284375 8.3283594 8.4407188 8.5683594 8.3867188 C 8.8083594 8.3327188 9.0695625 8.3066406 9.3515625 8.3066406 C 9.4355625 8.3066406 9.5232813 8.3122187 9.6132812 8.3242188 C 9.7092812 8.3302187 9.7988125 8.341375 9.8828125 8.359375 C 9.9728127 8.371375 10.047422 8.3862969 10.107422 8.4042969 C 10.173422 8.4162969 10.218188 8.4294063 10.242188 8.4414062 L 10.242188 8.1523438 C 10.242188 7.9903437 10.231031 7.8355469 10.207031 7.6855469 C 10.183031 7.5295469 10.128922 7.3914844 10.044922 7.2714844 C 9.9669217 7.1454844 9.853125 7.0466094 9.703125 6.9746094 C 9.559125 6.8966094 9.3669531 6.8574219 9.1269531 6.8574219 C 8.7849531 6.8574219 8.5293281 6.8816875 8.3613281 6.9296875 C 8.1933281 6.9776875 8.0701875 7.016875 7.9921875 7.046875 L 7.9121094 6.5332031 C 8.0141094 6.4852031 8.1689063 6.4404375 8.3789062 6.3984375 C 8.5949062 6.3564375 8.8542969 6.3359375 9.1542969 6.3359375 z M 9.3339844 8.8105469 C 9.1899844 8.8105469 9.0388125 8.8217031 8.8828125 8.8457031 C 8.7268125 8.8637031 8.5831719 8.9084687 8.4511719 8.9804688 C 8.3191719 9.0464687 8.2109531 9.1397656 8.1269531 9.2597656 C 8.0429531 9.3797656 8.0019531 9.5383281 8.0019531 9.7363281 C 8.0019531 9.9103281 8.0280313 10.057734 8.0820312 10.177734 C 8.1420312 10.297734 8.2241719 10.394797 8.3261719 10.466797 C 8.4341719 10.538797 8.559125 10.592906 8.703125 10.628906 C 8.853125 10.658906 9.0210313 10.673828 9.2070312 10.673828 C 9.4350312 10.673828 9.6347344 10.666297 9.8027344 10.654297 C 9.9767346 10.636297 10.122188 10.615797 10.242188 10.591797 L 10.242188 8.953125 C 10.176187 8.923125 10.071735 8.8932813 9.9277344 8.8632812 C 9.7837344 8.8272812 9.5859844 8.8105469 9.3339844 8.8105469 z M 13.351562 8.8417969 L 13.619141 8.8417969 L 13.619141 12.896484 L 13.240234 12.896484 L 13.240234 9.421875 C 13.197334 9.468675 13.140512 9.5157063 13.070312 9.5664062 C 13.004012 9.6171063 12.927597 9.66805 12.841797 9.71875 C 12.755997 9.76555 12.665866 9.812575 12.572266 9.859375 C 12.478666 9.902275 12.384616 9.9375437 12.291016 9.9648438 L 12.179688 9.671875 C 12.413688 9.5899751 12.623341 9.4880813 12.806641 9.3632812 C 12.989941 9.2345813 13.172163 9.0601969 13.351562 8.8417969 z "
     id="path4" />
</svg>

<svg xmlns="http://www.w3.org/2000/svg" viewBox="0 0 16 16">
 <path d="m 1.6 0 c -0.886 0 -1.6 0.713 -1.6 1.6 l 0 12.801 c 0 0.886 0.713 1.6 1.6 1.6 l 12.801 0 c 0.886 0 1.6 -0.713 1.6 -1.6 l 0 -12.801 c 0 -0.886 -0.713 -1.6 -1.6 -1.6 l -12.801 0 z m 0.781 4.859 l 0.611 0 l 0 2.906 c 0.228 -0.204 0.48 -0.437 0.756 -0.701 c 0.282 -0.27 0.558 -0.541 0.828 -0.811 c 0.276 -0.27 0.533 -0.527 0.773 -0.773 c 0.24 -0.246 0.432 -0.453 0.576 -0.621 l 0.738 0 c -0.174 0.186 -0.383 0.408 -0.629 0.666 c -0.246 0.252 -0.507 0.513 -0.783 0.783 c -0.276 0.27 -0.552 0.537 -0.828 0.801 c -0.27 0.258 -0.514 0.486 -0.73 0.684 c 0.174 0.108 0.361 0.242 0.559 0.404 c 0.204 0.156 0.409 0.331 0.613 0.523 c 0.21 0.186 0.413 0.384 0.611 0.594 c 0.204 0.204 0.392 0.411 0.566 0.621 c 0.18 0.21 0.339 0.413 0.477 0.611 c 0.144 0.198 0.262 0.381 0.352 0.549 l -0.684 0 c -0.204 -0.312 -0.435 -0.62 -0.693 -0.926 c -0.252 -0.306 -0.519 -0.595 -0.801 -0.865 c -0.282 -0.27 -0.569 -0.516 -0.863 -0.738 c -0.288 -0.222 -0.568 -0.407 -0.838 -0.557 l 0 3.086 l -0.611 0 l 0 -6.236 z m 6.773 1.477 c 0.306 0 0.563 0.045 0.773 0.135 c 0.216 0.084 0.389 0.203 0.521 0.359 c 0.132 0.15 0.229 0.329 0.289 0.539 c 0.06 0.21 0.09 0.44 0.09 0.686 l 0 2.934 c -0.06 0.018 -0.148 0.038 -0.262 0.063 c -0.114 0.018 -0.246 0.038 -0.396 0.063 c -0.15 0.024 -0.318 0.043 -0.504 0.055 c -0.18 0.018 -0.365 0.027 -0.557 0.027 c -0.246 0 -0.476 -0.028 -0.686 -0.082 c -0.204 -0.054 -0.383 -0.138 -0.539 -0.252 c -0.15 -0.12 -0.269 -0.269 -0.359 -0.449 c -0.084 -0.186 -0.127 -0.412 -0.127 -0.676 c 0 -0.252 0.049 -0.466 0.145 -0.646 c 0.096 -0.18 0.23 -0.327 0.404 -0.441 c 0.174 -0.12 0.381 -0.208 0.621 -0.262 c 0.24 -0.054 0.501 -0.08 0.783 -0.08 c 0.084 0 0.172 0.006 0.262 0.018 c 0.096 0.006 0.186 0.017 0.27 0.035 c 0.09 0.012 0.165 0.027 0.225 0.045 c 0.066 0.012 0.111 0.025 0.135 0.037 l 0 -0.289 c 0 -0.162 -0.011 -0.317 -0.035 -0.467 c -0.024 -0.156 -0.078 -0.294 -0.162 -0.414 c -0.078 -0.126 -0.192 -0.225 -0.342 -0.297 c -0.144 -0.078 -0.336 -0.117 -0.576 -0.117 c -0.342 0 -0.598 0.024 -0.766 0.072 c -0.168 0.048 -0.291 0.087 -0.369 0.117 l -0.08 -0.514 c 0.102 -0.048 0.257 -0.093 0.467 -0.135 c 0.216 -0.042 0.475 -0.063 0.775 -0.063 z m 0.18 2.475 c -0.144 0 -0.295 0.011 -0.451 0.035 c -0.156 0.018 -0.3 0.063 -0.432 0.135 c -0.132 0.066 -0.24 0.159 -0.324 0.279 c -0.084 0.12 -0.125 0.279 -0.125 0.477 c 0 0.174 0.026 0.321 0.08 0.441 c 0.06 0.12 0.142 0.217 0.244 0.289 c 0.108 0.072 0.233 0.126 0.377 0.162 c 0.15 0.03 0.318 0.045 0.504 0.045 c 0.228 0 0.428 -0.008 0.596 -0.02 c 0.174 -0.018 0.319 -0.038 0.439 -0.063 l 0 -1.639 c -0.066 -0.03 -0.17 -0.06 -0.314 -0.09 c -0.144 -0.036 -0.342 -0.053 -0.594 -0.053 z m 4.02 0.031 l 0.268 0 l 0 4.055 l -0.379 0 l 0 -3.475 c -0.043 0.047 -0.1 0.094 -0.17 0.145 c -0.066 0.051 -0.143 0.102 -0.229 0.152 c -0.086 0.047 -0.176 0.094 -0.27 0.141 c -0.094 0.043 -0.188 0.078 -0.281 0.105 l -0.111 -0.293 c 0.234 -0.082 0.444 -0.184 0.627 -0.309 c 0.183 -0.129 0.366 -0.303 0.545 -0.521 z" style="fill:#353535;fill-opacity:1"/>
</svg>
